Sources/FrostedUI/Resources/Icons.xcassets/swords16.imageset/swords-16.svg

<svg width="16" height="16" viewBox="0 0 16 16" fill="none" xmlns="http://www.w3.org/2000/svg" data-fui-icon="true">
  <g clip-path="url(#clip0_1083_204)">
    <path
      fill-rule="evenodd"
      clip-rule="evenodd"
      d="M13.8225 0.852996C13.7683 0.58177 13.5692 0.362416 13.3044 0.282262C13.0397 0.202107 12.7523 0.274166 12.5568 0.46975L8.98983 4.03668L8.4595 4.56701L9.52016 5.62767L10.0505 5.09734L12.1742 2.97363C12.0174 3.35387 11.7859 3.7052 11.4865 4.00456L11.4865 4.00457L10.2065 5.28458L9.67616 5.81491L10.7368 6.87558L11.2671 6.34525L12.5472 5.06524L12.5472 5.06523C13.6498 3.96266 14.1283 2.38198 13.8225 0.852996ZM3.55049 8.24372C3.84338 7.95083 4.31826 7.95083 4.61115 8.24372L4.69491 8.32748L4.78222 8.23949L5.31049 7.7071L6.37526 8.76363L5.847 9.29602L5.7556 9.38813L5.92723 9.55975L6.01453 9.47176L6.5428 8.93938L7.60757 9.99591L7.0793 10.5283L6.92341 10.6854C7.63224 11.8664 7.47764 13.4209 6.4596 14.4389L6.04884 14.8497C4.84851 16.05 2.9024 16.05 1.70207 14.8497L0.469792 13.6174C0.208769 13.3564 0.180367 12.9508 0.384586 12.6584C0.391617 12.6483 0.398925 12.6384 0.406508 12.6286C0.425839 12.6036 0.446961 12.5796 0.469877 12.5566L3.63631 9.39021L3.55049 9.30438C3.2576 9.01149 3.2576 8.53662 3.55049 8.24372ZM2.06076 13.0871L4.69696 10.4509L5.39894 11.1528C6.01348 11.7674 6.01348 12.7637 5.39894 13.3783L4.98818 13.789C4.37363 14.4036 3.37727 14.4036 2.76273 13.789L2.06076 13.0871ZM15.5304 13.6174L15.5231 13.6246L14.298 14.8497C13.0977 16.05 11.1516 16.05 9.95127 14.8497L9.54051 14.4389C8.39272 13.2911 8.34249 11.4614 9.3898 10.2539L6.61315 7.4773C4.65804 5.52219 2.49228 3.27712 3.03458 0.565869L11.0507 8.58199L11.389 8.24372C11.6819 7.95083 12.1567 7.95083 12.4496 8.24372C12.7425 8.53662 12.7425 9.01149 12.4496 9.30438L12.3639 9.39015L15.5304 12.5567C15.8233 12.8496 15.8233 13.3245 15.5304 13.6174ZM10.6012 11.1528L11.3032 10.4508L13.9394 13.087L13.2374 13.789C12.6228 14.4036 11.6265 14.4036 11.0119 13.789L10.6012 13.3783C9.98663 12.7637 9.98663 11.7674 10.6012 11.1528Z"
      fill="currentColor"
    />
  </g>
  <defs>
    <clipPath id="clip0_1083_204"><path fill="currentColor" d="M0 0H16V16H0z" /></clipPath>
  </defs>
</svg>

<svg xmlns="http://www.w3.org/2000/svg" width="16" height="16" fill="none" data-fui-icon="true" viewBox="0 0 16 16"><g clip-path="url(#a)"><path fill="currentColor" fill-rule="evenodd" d="M13.823.853A.75.75 0 0 0 12.557.47L8.99 4.037l-.53.53 1.06 1.06.53-.53 2.124-2.123c-.157.38-.388.731-.687 1.03l-1.28 1.28-.53.53 1.06 1.062.53-.53 1.28-1.28A4.66 4.66 0 0 0 13.822.852M3.55 8.243a.75.75 0 0 1 1.061 0l.084.084.087-.088.528-.532 1.065 1.057-.528.532-.091.092.171.172.088-.088.528-.533 1.065 1.057-.529.532-.156.157a3.075 3.075 0 0 1-.463 3.754l-.411.41a3.074 3.074 0 0 1-4.347 0L.47 13.618a.75.75 0 0 1 0-1.06L3.636 9.39l-.086-.086a.75.75 0 0 1 0-1.06m-1.49 4.844 2.637-2.636.702.702c.614.614.614 1.61 0 2.225l-.41.411a1.574 1.574 0 0 1-2.226 0zm13.47.53-.007.008-1.225 1.225a3.074 3.074 0 0 1-4.347 0l-.41-.411a3.074 3.074 0 0 1-.151-4.185L6.613 7.477c-1.955-1.955-4.12-4.2-3.578-6.911l8.016 8.016.338-.338a.75.75 0 1 1 1.06 1.06l-.085.086 3.166 3.167a.75.75 0 0 1 0 1.06m-4.929-2.464.702-.702 2.636 2.636-.702.702a1.574 1.574 0 0 1-2.225 0l-.41-.41a1.574 1.574 0 0 1 0-2.226" clip-rule="evenodd"/></g><defs><clipPath id="a"><path fill="currentColor" d="M0 0h16v16H0z"/></clipPath></defs></svg>
